X:1
T: Chanson LXXXII - Vecy le may
T: Manuscript de Bayeux
Z:Transcrit et/ou corrig par Michel BELLON - 2006-04-24
Z:Pour toute observation mailto:galouvielle@free.fr
M: C
K: C
L: 1/4
V: 1
c d/d/ ez/e/|g/>g/ g/>f/ e/>d/ c|zdd/c/B|Azcd|
ega>a|g/>f/ezc|d/d/ez/g/ a/>a/|g/>f/ezc|
dezg|a>a g/f/e|zd/d/ c/c/ B|Azcd/d/|
ez/g/ a/>a/ g/>f/|ed d/c/ B|A z c d/e/|c/A/ c A2 ||
%%footer $D   Galouvielle-MBe 2006 \n-- (--)
